X:1
T:The Orphans' Wedding
M:3/4
L:1/4
K:F
 C| A2 G/2A/2| c A3/2 G/2| F D3/2 E/2| D/2 C3/2 C| D D3/2 E/2| F D C|\
 d3-| d3| d2 e| d/2 c3/2 A| G A c| C2 F/2G/2| A A3/2 A/2|G/2-A/2 F C|\
 D3-| D2| F| D3/2 D/2 D| F G A| A/2- G3/2-A/2-c/2| d2 f| d3/2 d/2 d|\
 d c A| G3-| G2 A| D D3/2 E/2| F G A| A/2- G3/2-A/2-c/2| d2 f/2f/2|\
 d A3/2 F/2|G/2-F/2 D C| D3-| D2||
